contributed-vectors/kiwi_browser.svg

<?xml version="1.0" encoding="UTF-8" standalone="no"?>
<svg
   xmlns:dc="http://purl.org/dc/elements/1.1/"
   xmlns:cc="http://creativecommons.org/ns#"
   xmlns:rdf="http://www.w3.org/1999/02/22-rdf-syntax-ns#"
   xmlns:svg="http://www.w3.org/2000/svg"
   xmlns="http://www.w3.org/2000/svg"
   xmlns:sodipodi="http://sodipodi.sourceforge.net/DTD/sodipodi-0.dtd"
   xmlns:inkscape="http://www.inkscape.org/namespaces/inkscape"
   width="192"
   height="192"
   viewBox="0 0 192.00001 192.00001"
   id="svg6550"
   version="1.1"
   inkscape:version="1.0.1 (3bc2e813f5, 2020-09-07)"
   sodipodi:docname="kiwi_browser.svg"
   inkscape:export-filename="/home/jphilippe/inkscape/icônes/delta-github/png/kiwi_browser.png"
   inkscape:export-xdpi="96"
   inkscape:export-ydpi="96">
  <defs
     id="defs6552" />
  <sodipodi:namedview
     id="base"
     pagecolor="#ffffff"
     bordercolor="#666666"
     borderopacity="1.0"
     inkscape:pageopacity="0.0"
     inkscape:pageshadow="2"
     inkscape:zoom="2"
     inkscape:cx="69.795051"
     inkscape:cy="29.606681"
     inkscape:document-units="px"
     inkscape:current-layer="layer3"
     showgrid="false"
     inkscape:window-width="1680"
     inkscape:window-height="1022"
     inkscape:window-x="1920"
     inkscape:window-y="30"
     inkscape:window-maximized="1"
     units="px"
     inkscape:snap-nodes="false"
     inkscape:snap-bbox="true"
     inkscape:document-rotation="0" />
  <metadata
     id="metadata6555">
    <rdf:RDF>
      <cc:Work
         rdf:about="">
        <dc:format>image/svg+xml</dc:format>
        <dc:type
           rdf:resource="http://purl.org/dc/dcmitype/StillImage" />
        <dc:title />
      </cc:Work>
    </rdf:RDF>
  </metadata>
  <g
     inkscape:groupmode="layer"
     id="layer3"
     inkscape:label="Calque 1"
     style="display:inline">
    <circle
       style="fill:#96ded3;fill-opacity:1;fill-rule:evenodd;stroke:none"
       cx="96"
       cy="95.999977"
       r="88"
       id="circle12581" />
    <path
       id="path12583"
       style="fill:#ffffff;fill-opacity:1;fill-rule:evenodd;stroke:none;stroke-width:1px;stroke-linecap:butt;stroke-linejoin:miter;stroke-opacity:1"
       d="M 156.56641 69.007812 C 144.11953 69.135113 125.09075 68.802816 102.00195 83.103516 C 98.164158 85.480616 93.343711 83.98075 91.806641 82.96875 C 86.005221 79.14915 82.655407 77.919237 78.091797 76.898438 C 46.040457 69.728737 18.916277 107.74751 43.998047 136.59961 C 47.856527 141.03801 47.667127 144.7914 45.748047 150.3418 C 43.665477 156.3653 43.248729 161.7884 43.136719 166.2168 C 43.146136 166.27072 43.158445 166.32118 43.167969 166.375 A 88 88 0 0 0 96 184 A 88 88 0 0 0 155.28125 161.03516 C 155.26488 161.00645 155.25282 160.97793 155.23633 160.94922 C 151.04487 142.17322 137.51452 117.76147 110.30469 109.69727 C 106.11732 108.45617 103.3265 101.47614 107.52344 97.744141 C 127.0787 80.354941 147.09612 73.572612 157.00195 70.882812 C 157.54705 70.734813 157.81991 70.299244 157.83398 69.839844 C 157.84898 69.350044 157.14403 69.001812 156.56641 69.007812 z M 78.111328 95.691406 C 80.56559 95.690811 82.555304 97.680504 82.554688 100.13477 C 82.554199 102.58825 80.564809 104.57676 78.111328 104.57617 C 75.658613 104.57568 73.67041 102.58749 73.669922 100.13477 C 73.669305 97.68127 75.657832 95.691894 78.111328 95.691406 z " />
  </g>
</svg>

<svg xmlns="http://www.w3.org/2000/svg" width="192" height="192"><g style="display:inline"><circle cx="96" cy="96" r="88" style="fill:#96ded3;fill-opacity:1;fill-rule:evenodd;stroke:none"/><path d="M156.566 69.008c-12.446.127-31.475-.205-54.564 14.096-3.838 2.377-8.658.877-10.195-.135-5.802-3.82-9.152-5.05-13.715-6.07-32.052-7.17-59.176 30.849-34.094 59.7 3.859 4.439 3.67 8.192 1.75 13.743-2.083 6.023-2.5 11.446-2.611 15.875l.031.158A88 88 0 0 0 96 184a88 88 0 0 0 59.281-22.965c-.016-.029-.028-.057-.045-.086-4.191-18.776-17.721-43.188-44.931-51.252-4.188-1.24-6.979-8.22-2.782-11.953 19.556-17.39 39.573-24.171 49.479-26.861.545-.148.818-.584.832-1.043.015-.49-.69-.838-1.268-.832zM78.111 95.69a4.442 4.442 0 1 1 .003 8.885 4.442 4.442 0 0 1-.003-8.885z" style="fill:#fff;fill-opacity:1;fill-rule:evenodd;stroke:none;stroke-width:1px;stroke-linecap:butt;stroke-linejoin:miter;stroke-opacity:1"/></g></svg>
